assets/icons/qvision/notifications_off.svg

<svg xmlns="http://www.w3.org/2000/svg" height="24" viewBox="0 0 24 24" width="24"><path d="M0 0h24v24H0z" fill="none"/><path d="M20 18.69L7.84 6.14 5.27 3.49 4 4.76l2.8 2.8v.01c-.52.99-.8 2.16-.8 3.42v5l-2 2v1h13.73l2 2L21 19.72l-1-1.03zM12 22c1.11 0 2-.89 2-2h-4c0 1.11.89 2 2 2zm6-7.32V11c0-3.08-1.64-5.64-4.5-6.32V4c0-.83-.67-1.5-1.5-1.5s-1.5.67-1.5 1.5v.68c-.15.03-.29.08-.42.12-.1.03-.2.07-.3.11h-.01c-.01 0-.01 0-.02.01-.23.09-.46.2-.68.31 0 0-.01 0-.01.01L18 14.68z"/></svg>

<svg width="24" height="24" viewBox="0 0 24 24" fill="none" xmlns="http://www.w3.org/2000/svg">
<g clip-path="url(#clip0_147_6540)">
<path d="M20 18.69L7.84 6.14L5.27 3.49L4 4.76L6.8 7.56V7.57C6.28 8.56 6 9.73 6 10.99V15.99L4 17.99V18.99H17.73L19.73 20.99L21 19.72L20 18.69ZM12 22C13.11 22 14 21.11 14 20H10C10 21.11 10.89 22 12 22ZM18 14.68V11C18 7.92 16.36 5.36 13.5 4.68V4C13.5 3.17 12.83 2.5 12 2.5C11.17 2.5 10.5 3.17 10.5 4V4.68C10.35 4.71 10.21 4.76 10.08 4.8C9.98 4.83 9.88 4.87 9.78 4.91H9.77C9.76 4.91 9.76 4.91 9.75 4.92C9.52 5.01 9.29 5.12 9.07 5.23C9.07 5.23 9.06 5.23 9.06 5.24L18 14.68Z" fill="#323232"/>
</g>
<defs>
<clipPath id="clip0_147_6540">
<rect width="24" height="24" fill="white"/>
</clipPath>
</defs>
</svg>
